X:1
T:The Two Lost French Fliers
M:4/4
L:1/8
K:A
 EE| c2 cB A2 Bc| A F3- F2 A2| E2 AA A2 Bc| B4- B2 E2| c2 cB A2 Bc|\
 A F3- F2 A2| E2 EE G2 AB| A4- A2A-A| d2 dd d2 AB| d c3- c2 cB| A2 AA A2 Bc|\
 B4- B2 EE| c2 cB A2 Bc| A F3- F2 AF| E2 EE G2 AB| A4 z2||

